X:1262
L:1/8
M:4/4
K:C
 BEA |[M:9/8][K:D]SOSOO .!fermata!PMTuCO(MDED) A z F F2 D | C2 (E E) z F G2 E | (DED) A z D F2 D | 
 A,2 (D D) z F E D2 :| (f2 g/f/) e z d c2 A | B z (e e) z d c2 A | (B2 c/B/) A z G F D2 | 
 A,2 (D D) z F E D2 || (f2 g/f/) e z d c2 A | B z (e e) z d c2 A | B3 A2 G F E2 | 
 (DF) z (EG) z F2 E |]

